src/assets/heart.svg

<svg xmlns="http://www.w3.org/2000/svg" width="19" height="17" viewBox="0 0 19 17" fill="none">
	<path
		d="M9.52056 15.5801L9.2406 16.1593L9.52056 16.2946L9.80051 16.1593L9.52056 15.5801ZM9.52056 15.5801C9.80051 16.1593 9.80067 16.1592 9.80086 16.1591L9.80139 16.1588L9.80299 16.1581L9.80827 16.1555L9.82704 16.1463C9.84315 16.1383 9.86637 16.1268 9.89623 16.1118C9.95593 16.0818 10.0422 16.0378 10.1513 15.9805C10.3694 15.866 10.679 15.6983 11.0498 15.483C11.7899 15.0534 12.7804 14.4305 13.7745 13.66C14.7655 12.892 15.7803 11.9619 16.5522 10.9134C17.3224 9.86726 17.8836 8.6577 17.8836 7.34563C17.8836 5.22102 17.3776 3.65318 16.5424 2.57675C15.7019 1.49345 14.5704 0.963948 13.4445 0.85135C12.3315 0.740055 11.2177 1.0343 10.3699 1.59952C10.0581 1.80743 9.77306 2.05927 9.53757 2.34863C9.29739 2.03777 9.00155 1.76822 8.67426 1.5473C7.82331 0.972908 6.70604 0.682897 5.59138 0.803651C4.46399 0.925786 3.33469 1.46956 2.49669 2.56129C1.66366 3.64654 1.15747 5.22073 1.15747 7.34563C1.15747 8.6577 1.71873 9.86726 2.48893 10.9134C3.26079 11.9619 4.27559 12.892 5.26659 13.66C6.26071 14.4305 7.25126 15.0534 7.99135 15.483C8.3621 15.6983 8.67173 15.866 8.88981 15.9805C8.99889 16.0378 9.08518 16.0818 9.14488 16.1118C9.17474 16.1268 9.19796 16.1383 9.21407 16.1463L9.23284 16.1555L9.23812 16.1581L9.23972 16.1588L9.24025 16.1591C9.24044 16.1592 9.2406 16.1593 9.52056 15.5801Z"
		stroke="white" stroke-width="2" />
</svg>

<svg xmlns="http://www.w3.org/2000/svg" width="19" height="17" fill="none"><path stroke="#fff" stroke-width="2" d="m9.52 15.58-.28.58.28.135.28-.136zm0 0 .28.58.001-.001h.002l.005-.003.019-.01.07-.034.254-.131a25.028 25.028 0 0 0 3.623-2.32c.991-.769 2.006-1.7 2.778-2.748.77-1.046 1.332-2.255 1.332-3.567 0-2.125-.506-3.693-1.342-4.77A4.42 4.42 0 0 0 13.444.852a4.77 4.77 0 0 0-3.074.749c-.312.207-.597.46-.832.749-.24-.311-.536-.58-.864-.802C7.824.973 6.706.683 5.591.804A4.46 4.46 0 0 0 2.497 2.56c-.833 1.086-1.34 2.66-1.34 4.785 0 1.312.562 2.521 1.332 3.567.772 1.049 1.787 1.979 2.778 2.747a25 25 0 0 0 3.878 2.452l.07.034.018.01.005.002h.002v.001z"/></svg>
